X: 35998
T: Sault's
R: hornpipe
M: 4/4
K: Gmajor
|:BA|~G2 (3Bcd gb (3agf|g2 d2 G3 d|cB cd ef gf|(3efe (3dcB AcBA|
~G2 (3Bcd gb (3agf|gb (3agf g2 dc|Bd gA Ac BA|~G2 (3FGA G2:|
|:Bc|dggf ~g2 ge|dg ~g2 d2 bg|eaa^g ~a2 a=g|ea a^g ~a2 a=g|
eggf ~g2 ge|dg (3fga g2 ^g2|a^g af =ge dc|BD AD G2:|

